!!!OTL: WO BIST DU DENN GEWESEN
!!!ARE: Europa, Mitteleuropa, Deutschland, Hessen, Lahn - Kreis, Dill - Kreis
!!!SCT: E1732
!!!YEM: Copyright 1995, estate of Helmut Schaffrath.
**kern
*ICvox
*Ivox
*M3/8
*k[f#]
*G:
{8g
=1
16g
16a
8b
8cc
=2
8dd
8b
8cc
=3
8dd
8b
8cc
=4
8dd
8r}
{16g
16b
=5
8b
8a
16g
16b
=6
8b
8a
16g
16b
=7
8dd
8cc
8b
=8
8a
8r}
==
!!!AGN: Scherz - Lied
!!!ONB: ESAC (Essen Associative Code) Database: ERK3
!!!AMT: simple triple
!!!AIN: vox
!!!EED: Helmut Schaffrath
!!!EEV: 1.0
*-
